icons/liara.svg

<?xml version="1.0" encoding="UTF-8"?>
<svg xmlns="http://www.w3.org/2000/svg" xmlns:xlink="http://www.w3.org/1999/xlink" width="16px" height="16px" viewBox="0 0 16 16" version="1.1">
<defs>
<linearGradient id="linear0" gradientUnits="userSpaceOnUse" x1="11.328" y1="8.203" x2="90.301" y2="10.761" gradientTransform="matrix(0.172393,0,0,0.172393,-0.62,-0.586667)">
<stop offset="0" style="stop-color:rgb(41.176471%,94.117647%,68.235294%);stop-opacity:1;"/>
<stop offset="1" style="stop-color:rgb(30.980392%,76.470588%,96.862745%);stop-opacity:1;"/>
</linearGradient>
<linearGradient id="linear1" gradientUnits="userSpaceOnUse" x1="11.328" y1="8.203" x2="90.301" y2="10.761" gradientTransform="matrix(0.172393,0,0,0.172393,-0.62,-0.586667)">
<stop offset="0" style="stop-color:rgb(41.176471%,94.117647%,68.235294%);stop-opacity:1;"/>
<stop offset="1" style="stop-color:rgb(30.980392%,76.470588%,96.862745%);stop-opacity:1;"/>
</linearGradient>
<linearGradient id="linear2" gradientUnits="userSpaceOnUse" x1="11.328" y1="8.203" x2="90.301" y2="10.761" gradientTransform="matrix(0.172393,0,0,0.172393,-0.62,-0.586667)">
<stop offset="0" style="stop-color:rgb(41.176471%,94.117647%,68.235294%);stop-opacity:1;"/>
<stop offset="1" style="stop-color:rgb(30.980392%,76.470588%,96.862745%);stop-opacity:1;"/>
</linearGradient>
</defs>
<g id="surface1">
<path style=" stroke:none;fill-rule:nonzero;fill:url(#linear0);" d="M 8.71875 9.667969 C 8.71875 9.105469 9.117188 8.421875 9.605469 8.140625 L 13.78125 5.746094 C 14.269531 5.464844 14.667969 5.691406 14.667969 6.253906 L 14.667969 11.128906 C 14.667969 11.6875 14.269531 12.371094 13.78125 12.652344 L 9.605469 15.050781 C 9.117188 15.332031 8.71875 15.105469 8.71875 14.542969 Z M 8.71875 9.667969 "/>
<path style=" stroke:none;fill-rule:nonzero;fill:url(#linear1);" d="M 1.332031 6.253906 C 1.332031 5.691406 1.730469 5.464844 2.21875 5.746094 L 6.394531 8.140625 C 6.882812 8.421875 7.28125 9.105469 7.28125 9.667969 L 7.28125 14.542969 C 7.28125 15.105469 6.882812 15.332031 6.394531 15.050781 L 2.21875 12.652344 C 1.730469 12.371094 1.332031 11.6875 1.332031 11.125 Z M 1.332031 6.253906 "/>
<path style=" stroke:none;fill-rule:nonzero;fill:url(#linear2);" d="M 2.859375 4.453125 C 2.371094 4.171875 2.371094 3.714844 2.859375 3.4375 L 7.035156 1.039062 C 7.523438 0.757812 8.316406 0.757812 8.804688 1.039062 L 13.050781 3.476562 C 13.539062 3.757812 13.539062 4.210938 13.050781 4.492188 L 8.875 6.890625 C 8.386719 7.171875 7.59375 7.171875 7.101562 6.890625 Z M 2.859375 4.453125 "/>
</g>
</svg>

<svg xmlns="http://www.w3.org/2000/svg" width="16" height="16"><defs><linearGradient id="prefix__a" gradientUnits="userSpaceOnUse" x1="11.328" y1="8.203" x2="90.301" y2="10.761" gradientTransform="matrix(.1724 0 0 .1724 -.62 -.587)"><stop offset="0" stop-color="#69F0AE"/><stop offset="1" stop-color="#4FC3F7"/></linearGradient><linearGradient id="prefix__b" gradientUnits="userSpaceOnUse" x1="11.328" y1="8.203" x2="90.301" y2="10.761" gradientTransform="matrix(.1724 0 0 .1724 -.62 -.587)"><stop offset="0" stop-color="#69F0AE"/><stop offset="1" stop-color="#4FC3F7"/></linearGradient><linearGradient id="prefix__c" gradientUnits="userSpaceOnUse" x1="11.328" y1="8.203" x2="90.301" y2="10.761" gradientTransform="matrix(.1724 0 0 .1724 -.62 -.587)"><stop offset="0" stop-color="#69F0AE"/><stop offset="1" stop-color="#4FC3F7"/></linearGradient></defs><path fill="url(#prefix__a)" d="M8.719 9.668c0-.563.398-1.246.886-1.527l4.176-2.395c.489-.281.887-.055.887.508v4.875c0 .559-.398 1.242-.887 1.523l-4.176 2.399c-.488.281-.886.054-.886-.508zm0 0"/><path fill="url(#prefix__b)" d="M1.332 6.254c0-.563.398-.79.887-.508l4.176 2.395c.488.28.886.964.886 1.527v4.875c0 .562-.398.789-.886.508l-4.176-2.399c-.489-.28-.887-.964-.887-1.527zm0 0"/><path fill="url(#prefix__c)" d="M2.86 4.453c-.489-.281-.489-.738 0-1.016L7.034 1.04c.488-.281 1.281-.281 1.77 0l4.246 2.438c.488.28.488.734 0 1.015L8.875 6.891c-.488.28-1.281.28-1.773 0zm0 0"/></svg>
